resources/svg/lock-laminated-open-duotone.svg

<svg xmlns="http://www.w3.org/2000/svg" viewBox="0 0 256 256" fill="currentColor"><g opacity="0.2"><rect x="39.99414" y="88" width="176" height="128" rx="8"/></g><path d="M207.99414,80h-108V52a28,28,0,1,1,56,0,8,8,0,0,0,16,0,44,44,0,1,0-88,0V80h-36a16.01833,16.01833,0,0,0-16,16V208a16.01833,16.01833,0,0,0,16,16h160a16.01833,16.01833,0,0,0,16-16V96A16.01833,16.01833,0,0,0,207.99414,80Zm-160,48H207.99707l.00146,16H47.99414Zm0,32H207.99951l.00147,16H47.99414Zm160-64,.00146,16H47.99414V96Zm0,112h-160V192h160.0083l.00147,16Z"/></svg>

<svg xmlns="http://www.w3.org/2000/svg" viewBox="0 0 256 256" fill="currentColor"><g opacity="0.2"><rect x="40" y="88" width="176" height="128" rx="8"/></g><path d="M208,80H100V52a28,28,0,0,1,56,0,8,8,0,0,0,16,0,44,44,0,0,0-88,0V80H48A16,16,0,0,0,32,96V208a16,16,0,0,0,16,16H208a16,16,0,0,0,16-16V96A16,16,0,0,0,208,80ZM48,128H208v16H48Zm0,32H208v16H48ZM208,96v16H48V96Zm0,112H48V192H208v16Z"/></svg>
